X:1
T:Title
L:1/8
M:4/4
I:linebreak $
K:G
V:1 treble nm="Voice"
V:1
"Em" EGBE G3 B |"D" A3 B AGFG |"Em" EGBE G3 B |"D" AGFG"Em" E4 ::"Em" EGBG"D7" c3 A | %5
"Em" B3 d"D" AGFG |"Em" EGBG"D7" c3 A |"Em" BAGB"D" A4 ::"D" FGBF GBGF |"Em" EFGE FGFE | %10
"D" DFAD FADF | AGFG"Em" E4 :| %12
